X: 42605
T: Whiddon's
R: hornpipe
M: 4/4
K: Amajor
|:E2|A2 AG AECE|ABcd efga|AEBE cEdE|cBAc BAGB|
A2 AG AECE|ABcd efga|e^def e=dBG|Aaec A2:|
|:EC|A,CEA cAEC|DFBc dBGB|Aaga ecAc|(3BcB (3AGF (3EFE (3DCB,|
A,CEA cAEC|DFBc dBGB|Aaga fdBG|(3Ace (3aec A2:|

